dist/img/icons/services/dermatology.svg

<svg width="90" height="91" viewBox="0 0 90 91" fill="none" xmlns="http://www.w3.org/2000/svg">
<path d="M56.3865 35.9C64.2827 35.9 69.142 24.5 69.142 17.3C69.142 11.3 66.105 4.1 60.0309 4.1C52.1346 4.1 47.2753 15.5 47.2753 22.7C47.2753 28.7 50.3124 35.9 56.3865 35.9ZM33.305 35.9C39.379 35.9 42.4161 28.7 42.4161 22.7C42.4161 14.9 37.5568 3.5 29.6605 3.5C23.5865 3.5 20.5494 10.7 20.5494 16.7C19.942 24.5 24.8013 35.9 33.305 35.9ZM78.2531 29.9C70.3568 29.9 64.8902 40.7 64.8902 48.5C64.8902 53.9 67.3198 59.3 72.7865 59.3C80.6828 59.3 86.1494 48.5 86.1494 40.7C86.1494 35.3 83.1124 29.9 78.2531 29.9ZM25.4087 48.5C25.4087 40.7 19.3346 29.9 12.0457 29.9C6.57904 29.9 4.14941 35.3 4.14941 40.7C4.14941 48.5 10.2235 59.3 17.5124 59.3C22.979 59.3 25.4087 53.9 25.4087 48.5ZM44.8457 47.3C32.6976 47.3 16.2976 66.5 16.2976 79.7C16.2976 85.7 20.5494 87.5 25.4087 87.5C32.6976 87.5 38.1642 82.7 44.8457 82.7C50.9198 82.7 56.3865 87.5 63.0679 87.5C67.9272 87.5 73.3939 86.3 73.3939 79.7C73.3939 66.5 56.9939 47.3 44.8457 47.3Z" stroke="#FFC59E" stroke-width="7" stroke-linecap="round" stroke-linejoin="round"/>
</svg>

<svg width="90" height="91" fill="none" xmlns="http://www.w3.org/2000/svg"><path d="M56.386 35.9c7.897 0 12.756-11.4 12.756-18.6 0-6-3.037-13.2-9.111-13.2-7.896 0-12.756 11.4-12.756 18.6 0 6 3.037 13.2 9.111 13.2zm-23.081 0c6.074 0 9.111-7.2 9.111-13.2 0-7.8-4.86-19.2-12.755-19.2-6.075 0-9.112 7.2-9.112 13.2-.607 7.8 4.252 19.2 12.756 19.2zm44.948-6c-7.896 0-13.363 10.8-13.363 18.6 0 5.4 2.43 10.8 7.897 10.8 7.896 0 13.362-10.8 13.362-18.6 0-5.4-3.037-10.8-7.896-10.8zM25.41 48.5c0-7.8-6.074-18.6-13.363-18.6-5.467 0-7.897 5.4-7.897 10.8 0 7.8 6.074 18.6 13.363 18.6 5.467 0 7.897-5.4 7.897-10.8zm19.437-1.2c-12.148 0-28.548 19.2-28.548 32.4 0 6 4.251 7.8 9.11 7.8 7.29 0 12.756-4.8 19.438-4.8 6.074 0 11.54 4.8 18.222 4.8 4.86 0 10.326-1.2 10.326-7.8 0-13.2-16.4-32.4-28.548-32.4z" stroke="#FFC59E" stroke-width="7" stroke-linecap="round" stroke-linejoin="round"/></svg>
